X: 1
T: Skipping Lambs
R: reel
M: 4/4
L: 1/8
K: Amaj
|:F|~E3 F ABce|fc (3ccc ABce|a2 ga (3fga ec|dBcA BAFA|
~E3 F ABce|fc (3ccc ABce|a2 ga (3fga ec|dcBd cA A:|
|:e|a2 ga fdec|dBcA BAGA|~E3 F ABce|fc (3ccc ABce|
a2 ga (3fga ec|dBcA BAFA|~E3 F ABce|(3fga ed cA A:|
|:B|cA (3AAA eAce|aAgA fAec|~B3 c dcde|fB (3BBB fBdB|
cA (3AAA eAce|aAgAfAec|~B3 c dcde|1 (3 fga ed cA A:|2 (3fga ed cB A(|F E3)||

composer: Paddy Fahey
